X: 40027
T: Three Sisters, The
R: reel
M: 4/4
K: Eminor
|:EBBE cEBE|E/E/E BA AFG{D}F|E2 BE cEBE|B3A AGGF|
E2 BE cEBE|E/E/E BE AGFD|B2B.G AGGF|1 E/F/GFD E3G:|2 E/F/GFD E3g||
|:e~g3 egag|fade fa~a2|e~g3 egag|fedB e3z|
e~g3 e~g3|fade faa2|bgaf gefd|1 e/f/g fd e3g:|2 egfd e3B||
|:EBBE cEBE|~E2 BA AFJGJF|E2 BE cEBE|B/c/B GB AFED|
E2 BE cEBe|~e2 BE AFJG{D}F|B2GB AG.GF|1 E/F/GFD E3G:|2 E/F/GFD E3g||
|:e~g3 egag|fAde fa~a2|e~g3 egag|fedB e3d|
e~g3 egagh|fAde f/g/a.a2|b/a/g af g/f/e fd|1 eg f/e/d e3g:|2 egfd||

